X: 1
T: Piper On Horseback, The
M: 4/4
L: 1/8
R: reel
K: Dmaj
|:E|~F3d cAAB|cAdB cAGE|~F3d cAAB|cAGE FDD:|
|A|defg aged|efed cA~A2|defg aged|ABAG FDDA|
|defg ~a3g|efed cAAd|ef{g}fd efed|cAGE FDD||
%Variation 2nd last bar
f|ga{b}ag efed|
